svg/color/kiro.svg

<?xml version="1.0" encoding="UTF-8" ?>
<!DOCTYPE svg PUBLIC "-//W3C//DTD SVG 1.1//EN" "http://www.w3.org/Graphics/SVG/1.1/DTD/svg11.dtd">
<svg width="250pt" height="250pt" viewBox="0 0 250 250" version="1.1" xmlns="http://www.w3.org/2000/svg">
<g id="#ffffffff">
<path fill="#ffffff" opacity="1.00" d=" M 0.00 0.00 L 250.00 0.00 L 250.00 250.00 L 0.00 250.00 L 0.00 0.00 M 139.14 2.00 C 120.28 34.61 101.41 67.21 82.58 99.83 C 92.00 99.84 101.42 99.83 110.84 99.83 C 129.72 67.24 148.57 34.62 167.41 2.01 C 157.99 1.99 148.56 2.00 139.14 2.00 M 125.41 99.83 C 130.18 99.85 134.94 99.79 139.70 99.87 C 141.93 103.95 144.30 107.96 146.62 111.99 C 165.48 79.40 184.29 46.78 202.96 14.08 C 200.57 10.09 198.32 6.01 195.96 2.00 C 191.23 1.98 186.50 2.03 181.77 1.97 C 162.90 34.54 144.17 67.19 125.41 99.83 M 210.24 26.68 C 191.46 59.29 172.64 91.88 153.94 124.55 C 158.65 132.71 163.24 140.94 167.94 149.11 C 186.82 116.51 205.68 83.90 224.52 51.28 C 219.74 43.09 215.03 34.86 210.24 26.68 M 65.20 56.23 C 44.85 91.43 24.52 126.64 4.21 161.86 C 20.82 190.57 37.40 219.30 54.03 248.00 C 87.23 247.89 120.44 248.22 153.62 247.83 C 184.18 194.51 215.11 141.39 245.79 88.14 C 240.98 80.05 236.39 71.83 231.45 63.82 C 200.83 117.10 170.07 170.31 139.43 223.58 C 115.67 223.66 91.91 223.54 68.15 223.64 C 56.14 203.12 44.40 182.44 32.50 161.86 C 52.79 126.63 73.18 91.47 93.44 56.23 C 84.03 56.22 74.61 56.23 65.20 56.23 M 75.27 112.22 C 75.09 112.52 74.73 113.11 74.55 113.41 C 65.90 128.45 57.18 143.45 48.49 158.45 C 47.59 160.00 45.91 161.84 47.51 163.55 C 56.81 179.39 65.77 195.45 75.25 211.18 C 94.21 211.12 113.17 211.18 132.12 211.15 C 141.72 194.69 151.17 178.15 160.81 161.72 C 151.41 145.30 141.91 128.92 132.38 112.58 L 131.79 112.23 C 112.95 112.14 94.11 112.17 75.27 112.22 Z" />
</g>
<g id="#415364ff">
<path fill="#415364" opacity="1.00" d=" M 139.14 2.00 C 148.56 2.00 157.99 1.99 167.41 2.01 C 148.57 34.62 129.72 67.24 110.84 99.83 C 101.42 99.83 92.00 99.84 82.58 99.83 C 101.41 67.21 120.28 34.61 139.14 2.00 Z" />
<path fill="#415364" opacity="1.00" d=" M 125.41 99.83 C 144.17 67.19 162.90 34.54 181.77 1.97 C 186.50 2.03 191.23 1.98 195.96 2.00 C 198.32 6.01 200.57 10.09 202.96 14.08 C 184.29 46.78 165.48 79.40 146.62 111.99 C 144.30 107.96 141.93 103.95 139.70 99.87 C 134.94 99.79 130.18 99.85 125.41 99.83 Z" />
<path fill="#415364" opacity="1.00" d=" M 210.24 26.68 C 215.03 34.86 219.74 43.09 224.52 51.28 C 205.68 83.90 186.82 116.51 167.94 149.11 C 163.24 140.94 158.65 132.71 153.94 124.55 C 172.64 91.88 191.46 59.29 210.24 26.68 Z" />
<path fill="#415364" opacity="1.00" d=" M 65.20 56.23 C 74.61 56.23 84.03 56.22 93.44 56.23 C 73.18 91.47 52.79 126.63 32.50 161.86 C 44.40 182.44 56.14 203.12 68.15 223.64 C 91.91 223.54 115.67 223.66 139.43 223.58 C 170.07 170.31 200.83 117.10 231.45 63.82 C 236.39 71.83 240.98 80.05 245.79 88.14 C 215.11 141.39 184.18 194.51 153.62 247.83 C 120.44 248.22 87.23 247.89 54.03 248.00 C 37.40 219.30 20.82 190.57 4.21 161.86 C 24.52 126.64 44.85 91.43 65.20 56.23 Z" />
</g>
<g id="#ee499aff">
<path fill="#ee499a" opacity="1.00" d=" M 75.27 112.22 C 94.11 112.17 112.95 112.14 131.79 112.23 L 132.38 112.58 C 141.91 128.92 151.41 145.30 160.81 161.72 C 141.79 161.96 122.75 161.89 103.73 161.75 C 95.51 146.65 86.60 131.92 78.23 116.90 C 77.26 115.53 76.62 113.24 74.55 113.41 C 74.73 113.11 75.09 112.52 75.27 112.22 Z" />
</g>
<g id="#db207aff">
<path fill="#db207a" opacity="1.00" d=" M 74.55 113.41 C 76.62 113.24 77.26 115.53 78.23 116.90 C 86.60 131.92 95.51 146.65 103.73 161.75 C 94.10 178.14 84.82 194.75 75.25 211.18 C 65.77 195.45 56.81 179.39 47.51 163.55 C 45.91 161.84 47.59 160.00 48.49 158.45 C 57.18 143.45 65.90 128.45 74.55 113.41 Z" />
</g>
<g id="#751c4bff">
<path fill="#751c4b" opacity="1.00" d=" M 75.25 211.18 C 84.82 194.75 94.10 178.14 103.73 161.75 C 122.75 161.89 141.79 161.96 160.81 161.72 C 151.17 178.15 141.72 194.69 132.12 211.15 C 113.17 211.18 94.21 211.12 75.25 211.18 Z" />
</g>
</svg>

<?xml version="1.0" encoding="utf-8"?>
<!-- Generator: Adobe Illustrator 26.0.3, SVG Export Plug-In . SVG Version: 6.00 Build 0)  -->
<svg version="1.1" id="Layer_1" xmlns="http://www.w3.org/2000/svg" xmlns:xlink="http://www.w3.org/1999/xlink" x="0px" y="0px"
	 viewBox="0 0 250 250" style="enable-background:new 0 0 250 250;" xml:space="preserve">
<style type="text/css">
	.st0{fill:#415364;}
	.st1{fill:#EE499A;}
	.st2{fill:#DB207A;}
	.st3{fill:#751C4B;}
</style>
<g id="_x23_415364ff">
	<path class="st0" d="M139.1,2c9.4,0,18.9,0,28.3,0c-18.8,32.6-37.7,65.2-56.6,97.8c-9.4,0-18.8,0-28.3,0
		C101.4,67.2,120.3,34.6,139.1,2z"/>
	<path class="st0" d="M125.4,99.8c18.8-32.6,37.5-65.3,56.4-97.9c4.7,0.1,9.5,0,14.2,0c2.4,4,4.6,8.1,7,12.1
		c-18.7,32.7-37.5,65.3-56.3,97.9c-2.3-4-4.7-8-6.9-12.1C134.9,99.8,130.2,99.8,125.4,99.8z"/>
	<path class="st0" d="M210.2,26.7c4.8,8.2,9.5,16.4,14.3,24.6c-18.8,32.6-37.7,65.2-56.6,97.8c-4.7-8.2-9.3-16.4-14-24.6
		C172.6,91.9,191.5,59.3,210.2,26.7z"/>
	<path class="st0" d="M65.2,56.2c9.4,0,18.8,0,28.2,0c-20.3,35.2-40.7,70.4-60.9,105.6c11.9,20.6,23.6,41.3,35.7,61.8
		c23.8-0.1,47.5,0,71.3-0.1c30.6-53.3,61.4-106.5,92-159.8c4.9,8,9.5,16.2,14.3,24.3c-30.7,53.2-61.6,106.4-92.2,159.7
		c-33.2,0.4-66.4,0.1-99.6,0.2c-16.6-28.7-33.2-57.4-49.8-86.1C24.5,126.6,44.8,91.4,65.2,56.2z"/>
</g>
<g id="_x23_ee499aff">
	<path class="st1" d="M75.3,112.2c18.8-0.1,37.7-0.1,56.5,0l0.6,0.3c9.5,16.3,19,32.7,28.4,49.1c-19,0.2-38.1,0.2-57.1,0
		c-8.2-15.1-17.1-29.8-25.5-44.8c-1-1.4-1.6-3.7-3.7-3.5C74.7,113.1,75.1,112.5,75.3,112.2z"/>
</g>
<g id="_x23_db207aff">
	<path class="st2" d="M74.6,113.4c2.1-0.2,2.7,2.1,3.7,3.5c8.4,15,17.3,29.7,25.5,44.8c-9.6,16.4-18.9,33-28.5,49.4
		c-9.5-15.7-18.4-31.8-27.7-47.6c-1.6-1.7,0.1-3.6,1-5.1C57.2,143.4,65.9,128.4,74.6,113.4z"/>
</g>
<g id="_x23_751c4bff">
	<path class="st3" d="M75.2,211.2c9.6-16.4,18.8-33,28.5-49.4c19,0.1,38.1,0.2,57.1,0c-9.6,16.4-19.1,33-28.7,49.4
		C113.2,211.2,94.2,211.1,75.2,211.2z"/>
</g>
</svg>
